X:101
T:Galley Slave. LIT.101, The
M:4/4
Q:1/4=120
L:1/8
B:Wm. Litten MS, 1802
Z:Village Music Project 2017 Anne Wride
K:C
G | c2c>d e2ce | fd cB c2 cd | e2 eg ge dc | e2 dA d4 |
e2 c/d/e/c/ d2 B/c/d/e/ | c2A/B/c/d/ B2g2 | g2 ^f/e/d/c/ B>c d/c/B/A/ | G6 GB|
d2 c/B/A/G/ e2 g^g | a2 e/d/c/B/ A3 B | c>e d>f eg fd | cB2 A G4 |
c2 d>de2 ce/g/ | fd cB g3g | a2 fa g2 f/e/d/c/ | d>c de c3 |]

